X:1714
T:Dunnigall's Rant
O:england
S:Andrew Adam's Music Book (ms)
M:6/4
L:1/8
K:D
A3 G F2 E2 C2 E2|D2 F2 A2 D4 F2|DEFDdA F4 B2|
ABAG F2 E2 C2 E2|DEFD F2 EFGE G2|DEFD F2 EFGE G2|
d2 a2 a2 a4 f2|defgaf cdefge|defgab a4 f2|
agfgaf gfefge|agfgab agfgaf|gabagf g2 fedc|
d3 c B2 A2 G2 F2|G3 A G2 E2 C2 E2|D3 A F2 D3 d F2|
D3 A F2 E2 C2 E2|D3 A F2 d2 A2 B2|A3 G F2 E2 C2 E2|
d2 A2 D2 d2 A2 F2|d2 A2 E2|dcBA F2|dcBA D2 dcBA E2|
dcdcdc dcBAGF|E2 A2 A2 A4 G2|F2 A2 A2 C2 E2 E2|
D2 A2 A2 A4 G2|F3 G A2 E2 C2 E2|]
